X: 25856
T: Master's Return, The
R: reel
M: 4/4
K: Cmajor
~c3A GAcd|(3 ege ce dcAG|^FGcA GE~E2|D^CDE C3z1|
~c2cA GAcd|ec~c2 dcAG|(3EFG cA GE~E2|DCDE CDEG||
~c3e ~g2ec|dged cAGA|cdec Gc~c2|dged cGAB|
cdec Gc~c2|dged cAGA|cdea ~g3a|gede cded||

